svgs/solid/phone-hangup.svg

<svg xmlns="http://www.w3.org/2000/svg" viewBox="0 0 640 512"><!--! Font Awesome Pro 6.0.0-alpha3 by @fontawesome - https://fontawesome.com License - https://fontawesome.com/license (Commercial License) --><path d="M635.4 293.6l-52.73 84.25c-7.631 12.2-23.09 17.35-36.63 11.98l-105.4-42.1c-12.45-4.925-20.14-17.65-18.71-30.87l6.64-66.46C358.3 226.5 281.8 226.5 211.6 250.4l6.621 66.51c1.338 13.27-6.28 25.86-18.67 30.85l-105.5 42.13c-13.6 5.307-29.04 .2437-36.72-12.04l-52.71-84.22C-2.861 281.8-1.118 266.5 8.85 256.5C180.4 85.16 459.6 85.17 631.1 256.5C641.1 266.5 642.9 281.8 635.4 293.6z"/></svg>

<svg xmlns="http://www.w3.org/2000/svg" viewBox="0 0 640 512"><!-- Font Awesome Pro 6.0.0-alpha2 by @fontawesome - https://fontawesome.com License - https://fontawesome.com/license (Commercial License) --><path d="M635.389 293.649L582.66 377.894C575.03 390.098 559.569 395.246 546.03 389.875L440.623 347.775C428.17 342.85 420.486 330.125 421.91 316.902L428.551 250.433C358.33 226.49 281.764 226.479 211.574 250.412L218.196 316.922C219.533 330.188 211.916 342.786 199.525 347.775L94.044 389.907C80.441 395.214 65.001 390.151 57.327 377.862L4.619 293.638C-2.862 281.751 -1.118 266.468 8.849 256.514C180.427 85.159 459.581 85.168 631.138 256.504C641.117 266.468 642.86 281.751 635.389 293.649Z"/></svg>
